SVG_Azure_All/Function App Function.svg

<?xml version="1.0" encoding="UTF-8" standalone="no"?>
<!-- Generated by Microsoft Visio, SVG Export Function App Function.svg Page-1 -->

<svg
   xmlns:dc="http://purl.org/dc/elements/1.1/"
   xmlns:cc="http://creativecommons.org/ns#"
   xmlns:rdf="http://www.w3.org/1999/02/22-rdf-syntax-ns#"
   xmlns:svg="http://www.w3.org/2000/svg"
   xmlns="http://www.w3.org/2000/svg"
   xmlns:sodipodi="http://sodipodi.sourceforge.net/DTD/sodipodi-0.dtd"
   xmlns:inkscape="http://www.inkscape.org/namespaces/inkscape"
   width="0.78736198in"
   height="0.6299783in"
   viewBox="0 0 56.689971 45.358405"
   xml:space="preserve"
   class="st5"
   version="1.1"
   id="svg44"
   sodipodi:docname="Function App Function.svg"
   style="font-size:12px;overflow:visible;color-interpolation-filters:sRGB;fill:none;fill-rule:evenodd;stroke-linecap:square;stroke-miterlimit:3"
   inkscape:version="0.92.5 (2060ec1f9f, 2020-04-08)"><metadata
   id="metadata48"><rdf:RDF><cc:Work
       rdf:about=""><dc:format>image/svg+xml</dc:format><dc:type
         rdf:resource="http://purl.org/dc/dcmitype/StillImage" /></cc:Work></rdf:RDF></metadata><sodipodi:namedview
   pagecolor="#ffffff"
   bordercolor="#666666"
   borderopacity="1"
   objecttolerance="10"
   gridtolerance="10"
   guidetolerance="10"
   inkscape:pageopacity="0"
   inkscape:pageshadow="2"
   inkscape:window-width="640"
   inkscape:window-height="480"
   id="namedview46"
   showgrid="false"
   inkscape:zoom="1.5612034"
   inkscape:cx="37.795416"
   inkscape:cy="30.228723"
   inkscape:window-x="0"
   inkscape:window-y="0"
   inkscape:window-maximized="0"
   inkscape:current-layer="svg44" />
	<style
   type="text/css"
   id="style2">
	<![CDATA[
		.st1 {fill:#0078d4;stroke:none;stroke-linecap:butt;stroke-width:34}
		.st2 {fill:#5ea0ef;stroke:none;stroke-linecap:butt;stroke-width:34}
		.st3 {fill:url(#grad0-10);stroke:none;stroke-linecap:butt;stroke-width:34}
		.st4 {fill:#949494;stroke:none;stroke-linecap:butt;stroke-width:34}
		.st5 {fill:none;fill-rule:evenodd;font-size:12px;overflow:visible;stroke-linecap:square;stroke-miterlimit:3}
	]]>
	</style>

	<defs
   id="Patterns_And_Gradients">
		<linearGradient
   id="grad0-10"
   x1="-0.00050639078"
   y1="68.422577"
   x2="30.393227"
   y2="68.422577"
   gradientTransform="scale(0.87158095,1.1473404)"
   gradientUnits="userSpaceOnUse">
			<stop
   offset="0"
   stop-color="#0078d4"
   stop-opacity="1"
   id="stop4" />
			<stop
   offset="0.38"
   stop-color="#2989e0"
   stop-opacity="1"
   id="stop6" />
			<stop
   offset="0.785"
   stop-color="#4f9aeb"
   stop-opacity="1"
   id="stop8" />
			<stop
   offset="1"
   stop-color="#5ea0ef"
   stop-opacity="1"
   id="stop10" />
		</linearGradient>
	</defs>
	<g
   id="g42"
   transform="translate(-34,-34.000107)">
		<title
   id="title14">Page-1</title>
		<g
   id="group4414-1"
   transform="translate(34,-34.0157)">
			<title
   id="title16">Function App Function</title>
			<g
   id="group4415-2">
				<title
   id="title18">Sheet.4415</title>
				<g
   id="shape4416-3"
   transform="translate(30.0169,-9.20935)">
					<title
   id="title20">Sheet.4416</title>
					<path
   d="m 6.06,105.73 c 0.15,0.6 0.27,1.18 0.42,1.76 0.37,1.44 0.72,2.88 1.15,4.31 a 2.09391,2.06481 -180 0 0 1.51,1.57 2.20411,2.17348 -180 0 0 1.84,-0.53 11.5747,11.4139 -180 0 0 2.82,-2.9 c 0.26,-0.38 0.47,-0.78 0.72,-1.19 l -0.67,-0.31 a 9.188,9.06031 0 0 1 -0.8,1.17 11.7322,11.5691 0 0 1 -1.59,1.45 c -0.42,0.31 -0.77,0.18 -1.01,-0.27 a 4.18466,4.12651 0 0 1 -0.39,-1 c -0.6,-2.4 -1.18,-4.8 -1.76,-7.21 L 7.93,101.03 C 7.75,100.4 7.59,99.87 7.45,99.33 A 8.40396,8.28717 -180 0 0 5.5,95.55 0.503797,0.496796 -180 0 0 4.974162,95.385436 C 3.51,95.65 2.03,95.9 0.57,96.16 0,96.26 0,96.28 0.09,96.91 h 0.34 c 0.43,0 0.87,-0.01 1.3,0.03 a 2.85905,2.81931 0 0 1 2.71,2.41 c 0.46,1.5 0.82,3.03 1.21,4.55 z"
   class="st1"
   id="path22"
   inkscape:connector-curvature="0"
   style="fill:#0078d4;stroke:none;stroke-width:34;stroke-linecap:butt" />
				</g>
				<g
   id="shape4417-5"
   transform="translate(27.0122,-9.20003)">
					<title
   id="title25">Sheet.4417</title>
					<path
   d="m 9.14,105.72 c -0.85,1.33 -1.63,2.64 -2.51,3.88 a 28.2221,27.8299 0 0 1 -2.32,2.71 3.62734,3.57693 0 0 1 -2.04,1.06 1.97111,1.94371 0 0 1 -2.24,-1.22 1.47676,1.45623 0 0 1 0.45,-1.59 1.38544,1.36619 0 0 1 1.69,-0.16 9.13132,9.00442 0 0 1 0.89,0.62 c 0.41,0.31 0.63,0.35 1.01,0 a 10.1421,10.0011 -180 0 0 1.51,-1.65 c 1.07,-1.58 2.06,-3.2 3.06,-4.82 l 2.37,-3.56 c 0.19,-0.26 0.34,-0.46 0.48,-0.67 a 17.6329,17.3878 0 0 1 2.39,-3.14 6.64382,6.55149 0 0 1 2.54,-1.74 2.12225,2.09275 0 0 1 2.21,0.39 1.53658,1.51523 0 0 1 0.33,1.71 1.25949,1.24199 0 0 1 -1.22,0.78 2.65753,2.6206 0 0 1 -1.23,-0.2 2.04982,2.02134 -180 0 0 -2.68,0.7 c -0.85,1.08 -1.62,2.22 -2.4,3.35 z"
   class="st2"
   id="path27"
   inkscape:connector-curvature="0"
   style="fill:#5ea0ef;stroke:none;stroke-width:34;stroke-linecap:butt" />
				</g>
				<g
   id="shape4418-7"
   transform="translate(8.71884,-8.21265)">
					<title
   id="title30">Sheet.4418</title>
					<path
   d="m 25.6,79.11 a 3.41952,3.372 -180 0 0 -2.16,-0.6 8.92351,8.79949 -180 0 0 -4.45,1.32 10.649,10.501 -180 0 0 -3.75,3.6 21.4429,21.1449 -180 0 0 -2.28,5.91 H 8.83 l -0.17,0.69 -0.32,1.22 -0.29,1.13 h 4.14 l -3.23,12.79 a 8.77552,8.65356 0 0 1 -1.32,3.47 2.51899,2.48398 0 0 1 -1.82,0.52 17.4944,17.2512 0 0 1 -2.21,-0.15 10.6459,10.4979 -180 0 0 -1.19,-0.09 2.6103,2.57402 -180 0 0 -1.69,0.54 1.96796,1.94061 -180 0 0 -0.73,1.55 2.17892,2.14864 -180 0 0 0.94,1.76 3.57066,3.52104 -180 0 0 2.21,0.6 9.60678,9.47327 -180 0 0 6.66,-2.79 16.1813,15.9565 -180 0 0 4.31,-7.97 l 2.52,-10.23 h 4.66 l 0.16,-0.72 0.28,-1.21 0.26,-1.11 h -4.58 l 0.6,-2.51 a 11.0961,10.9419 0 0 1 1.35,-3.46 c 0.43,-0.64 0.86,-0.97 1.29,-0.97 a 5.66772,5.58895 0 0 1 1.11,0.15 13.7285,13.5377 -180 0 0 2.48,0.38 2.25134,2.22006 -180 0 0 1.59,-0.6 2.06872,2.03997 -180 0 0 0.65,-1.51 2.12854,2.09896 -180 0 0 -0.89,-1.71 z M 1.49,112.02 a 1.45471,1.4345 0 0 1 -0.42,-0.47 1.45471,1.4345 -180 0 0 0.42,0.47 2.04668,2.01823 -180 0 0 0.8,0.34 2.04668,2.01823 0 0 1 -0.81,-0.33 z"
   class="st3"
   id="path32"
   inkscape:connector-curvature="0"
   style="fill:url(#grad0-10);stroke:none;stroke-width:34;stroke-linecap:butt" />
				</g>
				<g
   id="shape4419-11">
					<title
   id="title35">Sheet.4419</title>
					<path
   d="M 6.49,85.17 V 73.75 c 0,-1.49 0.55,-2.38 1.6,-2.71 A 1.55547,1.53386 -180 0 0 9.15,69.57 1.57437,1.55249 -180 0 0 7.46,68.02 6.00463,5.92118 -180 0 0 3.94,69.21 6.15577,6.07022 -180 0 0 2.43,73.87 v 11.65 c 0,1.62 -0.5,2.6 -1.5,2.94 A 1.28468,1.26683 -180 0 0 0,89.64 v 2.1 a 1.28783,1.26993 -180 0 0 0.94,1.17 c 1.01,0.35 1.51,1.33 1.51,2.94 v 11.65 a 6.15577,6.07022 -180 0 0 1.5,4.69 6.00463,5.92118 -180 0 0 3.53,1.18 1.57437,1.55249 -180 0 0 1.69,-1.55 1.55547,1.53386 -180 0 0 -1.07,-1.47 C 7.05,110.02 6.5,109.14 6.5,107.64 V 96.2 c 0,-2.63 -0.69,-4.38 -2.43,-5.07 0,0 -0.71,-0.15 -0.71,-0.44 0,-0.35 0.88,-0.6 0.88,-0.6 1.74,-0.68 2.25,-2.29 2.25,-4.92 z m 43.7,0 V 73.75 c 0,-1.49 -0.55,-2.38 -1.6,-2.71 a 1.55547,1.53386 0 0 1 -1.06,-1.47 1.57437,1.55249 0 0 1 1.69,-1.55 6.00463,5.92118 0 0 1 3.52,1.19 6.15577,6.07022 0 0 1 1.51,4.68 v 11.63 c 0,1.62 0.5,2.6 1.5,2.94 a 1.28468,1.26683 0 0 1 0.94,1.18 v 2.1 a 1.28783,1.26993 0 0 1 -0.94,1.17 c -1,0.35 -1.5,1.33 -1.5,2.94 v 11.65 a 6.15577,6.07022 0 0 1 -1.51,4.69 6.00463,5.92118 0 0 1 -3.52,1.18 1.57437,1.55249 0 0 1 -1.69,-1.55 1.55547,1.53386 0 0 1 1.06,-1.47 c 1.05,-0.33 1.6,-1.21 1.6,-2.71 V 96.2 c 0,-2.63 0.7,-4.38 2.43,-5.07 0,0 0.71,-0.15 0.72,-0.44 0,-0.35 -0.89,-0.6 -0.89,-0.6 -1.74,-0.68 -2.26,-2.29 -2.26,-4.92 z"
   class="st4"
   id="path37"
   inkscape:connector-curvature="0"
   style="fill:#949494;stroke:none;stroke-width:34;stroke-linecap:butt" />
				</g>
			</g>
		</g>
	</g>
</svg>

<?xml version="1.0" encoding="UTF-8" standalone="no"?>
<!DOCTYPE svg PUBLIC "-//W3C//DTD SVG 1.1//EN" "http://www.w3.org/Graphics/SVG/1.1/DTD/svg11.dtd">
<!-- Generated by Microsoft Visio, SVG Export Function App Function.svg Page-1 -->
<svg xmlns="http://www.w3.org/2000/svg" xmlns:xlink="http://www.w3.org/1999/xlink" xmlns:ev="http://www.w3.org/2001/xml-events"
		width="1.73185in" height="1.57464in" viewBox="0 0 124.693 113.374" xml:space="preserve" color-interpolation-filters="sRGB"
		class="st5">
	<style type="text/css">
	<![CDATA[
		.st1 {fill:#0078d4;stroke:none;stroke-linecap:butt;stroke-width:34}
		.st2 {fill:#5ea0ef;stroke:none;stroke-linecap:butt;stroke-width:34}
		.st3 {fill:url(#grad0-10);stroke:none;stroke-linecap:butt;stroke-width:34}
		.st4 {fill:#949494;stroke:none;stroke-linecap:butt;stroke-width:34}
		.st5 {fill:none;fill-rule:evenodd;font-size:12px;overflow:visible;stroke-linecap:square;stroke-miterlimit:3}
	]]>
	</style>

	<defs id="Patterns_And_Gradients">
		<linearGradient id="grad0-10" x1="0" y1="0" x2="1" y2="0" gradientTransform="rotate(0 0.5 0.5)">
			<stop offset="0" stop-color="#0078d4" stop-opacity="1"/>
			<stop offset="0.38" stop-color="#2989e0" stop-opacity="1"/>
			<stop offset="0.785" stop-color="#4f9aeb" stop-opacity="1"/>
			<stop offset="1" stop-color="#5ea0ef" stop-opacity="1"/>
		</linearGradient>
	</defs>
	<g>
		<title>Page-1</title>
		<g id="group4317-1" transform="translate(34,-34.0157)">
			<title>Function App Function</title>
			<g id="group4318-2">
				<title>Sheet.4318</title>
				<g id="shape4319-3" transform="translate(30.0169,-9.20935)">
					<title>Sheet.4319</title>
					<path d="M6.06 105.73 C6.21 106.33 6.33 106.91 6.48 107.49 C6.85 108.93 7.2 110.37 7.63 111.8 A2.09391 2.06481
								 -180 0 0 9.14 113.37 A2.20411 2.17348 -180 0 0 10.98 112.84 A11.5747 11.4139 -180 0 0 13.8 109.94
								 C14.06 109.56 14.27 109.16 14.52 108.75 L13.85 108.44 A9.188 9.06031 0 0 1 13.05 109.61 A11.7322
								 11.5691 0 0 1 11.46 111.06 C11.04 111.37 10.69 111.24 10.45 110.79 A4.18466 4.12651 0 0 1 10.06
								 109.79 C9.46 107.39 8.88 104.99 8.3 102.58 L7.93 101.03 C7.75 100.4 7.59 99.87 7.45 99.33 A8.40396
								 8.28717 -180 0 0 5.5 95.55 a0.503797 0.496796 -180 0 0 -0.525838 -0.164564 C3.51 95.65 2.03 95.9
								 0.57 96.16 C0 96.26 0 96.28 0.09 96.91 L0.43 96.91 C0.86 96.91 1.3 96.9 1.73 96.94 A2.85905 2.81931
								 0 0 1 4.44 99.35 C4.9 100.85 5.26 102.38 5.65 103.9 L6.06 105.73 Z" class="st1"/>
				</g>
				<g id="shape4320-5" transform="translate(27.0122,-9.20003)">
					<title>Sheet.4320</title>
					<path d="M9.14 105.72 C8.29 107.05 7.51 108.36 6.63 109.6 A28.2221 27.8299 0 0 1 4.31 112.31 A3.62734 3.57693
								 0 0 1 2.27 113.37 A1.97111 1.94371 0 0 1 0.03 112.15 A1.47676 1.45623 0 0 1 0.48 110.56 A1.38544
								 1.36619 0 0 1 2.17 110.4 A9.13132 9.00442 0 0 1 3.06 111.02 C3.47 111.33 3.69 111.37 4.07 111.02
								 A10.1421 10.0011 -180 0 0 5.58 109.37 C6.65 107.79 7.64 106.17 8.64 104.55 L11.01 100.99 C11.2 100.73
								 11.35 100.53 11.49 100.32 A17.6329 17.3878 0 0 1 13.88 97.18 A6.64382 6.55149 0 0 1 16.42 95.44
								 A2.12225 2.09275 0 0 1 18.63 95.83 A1.53658 1.51523 0 0 1 18.96 97.54 A1.25949 1.24199 0 0 1 17.74
								 98.32 A2.65753 2.6206 0 0 1 16.51 98.12 A2.04982 2.02134 -180 0 0 13.83 98.82 C12.98 99.9 12.21
								 101.04 11.43 102.17 L9.14 105.72 Z" class="st2"/>
				</g>
				<g id="shape4321-7" transform="translate(8.71884,-8.21265)">
					<title>Sheet.4321</title>
					<path d="M25.6 79.11 A3.41952 3.372 -180 0 0 23.44 78.51 A8.92351 8.79949 -180 0 0 18.99 79.83 A10.649 10.501
								 -180 0 0 15.24 83.43 A21.4429 21.1449 -180 0 0 12.96 89.34 L8.83 89.34 L8.66 90.03 L8.34 91.25 L8.05
								 92.38 L12.19 92.38 L8.96 105.17 A8.77552 8.65356 0 0 1 7.64 108.64 A2.51899 2.48398 0 0 1 5.82 109.16
								 A17.4944 17.2512 0 0 1 3.61 109.01 A10.6459 10.4979 -180 0 0 2.42 108.92 A2.6103 2.57402 -180 0
								 0 0.73 109.46 A1.96796 1.94061 -180 0 0 -0 111.01 A2.17892 2.14864 -180 0 0 0.94 112.77 A3.57066
								 3.52104 -180 0 0 3.15 113.37 A9.60678 9.47327 -180 0 0 9.81 110.58 A16.1813 15.9565 -180 0 0 14.12
								 102.61 L16.64 92.38 L21.3 92.38 L21.46 91.66 L21.74 90.45 L22 89.34 L17.42 89.34 L18.02 86.83 A11.0961
								 10.9419 0 0 1 19.37 83.37 C19.8 82.73 20.23 82.4 20.66 82.4 A5.66772 5.58895 0 0 1 21.77 82.55 A13.7285
								 13.5377 -180 0 0 24.25 82.93 A2.25134 2.22006 -180 0 0 25.84 82.33 A2.06872 2.03997 -180 0 0 26.49
								 80.82 A2.12854 2.09896 -180 0 0 25.6 79.11 ZM1.49 112.02 A1.45471 1.4345 0 0 1 1.07 111.55 A1.45471
								 1.4345 -180 0 0 1.49 112.02 A2.04668 2.01823 -180 0 0 2.29 112.36 A2.04668 2.01823 0 0 1 1.48 112.03
								 L1.49 112.02 Z" class="st3"/>
				</g>
				<g id="shape4322-11">
					<title>Sheet.4322</title>
					<path d="M6.49 85.17 L6.49 73.75 C6.49 72.26 7.04 71.37 8.09 71.04 A1.55547 1.53386 -180 0 0 9.15 69.57 A1.57437
								 1.55249 -180 0 0 7.46 68.02 A6.00463 5.92118 -180 0 0 3.94 69.21 A6.15577 6.07022 -180 0 0 2.43
								 73.87 L2.43 85.52 C2.43 87.14 1.93 88.12 0.93 88.46 A1.28468 1.26683 -180 0 0 -0 89.64 L0 91.74
								 A1.28783 1.26993 -180 0 0 0.94 92.91 C1.95 93.26 2.45 94.24 2.45 95.85 L2.45 107.5 A6.15577 6.07022
								 -180 0 0 3.95 112.19 A6.00463 5.92118 -180 0 0 7.48 113.37 A1.57437 1.55249 -180 0 0 9.17 111.82
								 A1.55547 1.53386 -180 0 0 8.1 110.35 C7.05 110.02 6.5 109.14 6.5 107.64 L6.5 96.2 C6.5 93.57 5.81
								 91.82 4.07 91.13 C4.07 91.13 3.36 90.98 3.36 90.69 C3.36 90.34 4.24 90.09 4.24 90.09 C5.98 89.41
								 6.49 87.8 6.49 85.17 ZM50.19 85.17 L50.19 73.75 C50.19 72.26 49.64 71.37 48.59 71.04 A1.55547 1.53386
								 0 0 1 47.53 69.57 A1.57437 1.55249 0 0 1 49.22 68.02 A6.00463 5.92118 0 0 1 52.74 69.21 A6.15577
								 6.07022 0 0 1 54.25 73.89 L54.25 85.52 C54.25 87.14 54.75 88.12 55.75 88.46 A1.28468 1.26683 0 0
								 1 56.69 89.64 L56.69 91.74 A1.28783 1.26993 0 0 1 55.75 92.91 C54.75 93.26 54.25 94.24 54.25 95.85
								 L54.25 107.5 A6.15577 6.07022 0 0 1 52.74 112.19 A6.00463 5.92118 0 0 1 49.22 113.37 A1.57437 1.55249
								 0 0 1 47.53 111.82 A1.55547 1.53386 0 0 1 48.59 110.35 C49.64 110.02 50.19 109.14 50.19 107.64 L50.19
								 96.2 C50.19 93.57 50.89 91.82 52.62 91.13 C52.62 91.13 53.33 90.98 53.34 90.69 C53.34 90.34 52.45
								 90.09 52.45 90.09 C50.71 89.41 50.19 87.8 50.19 85.17 Z" class="st4"/>
				</g>
			</g>
		</g>
	</g>
</svg>
